X: 1
T: West Kilbride
C: A.M.Volti
B: RSCDS 32-3
R: reel
Z: 2008 John Chambers <jc@trillian.mit.edu>
M: C|
L: 1/8
K: A
   e2 | "A"aA~A2   AcBA | "E7"GABc defg | "A"a2~A2 AcBA | "E7"dBGB "A"A2 :|
|: e2 | "A"a2ae "D"f2fe | "A"a2ae "D"f2fe | "A"agfe "D"dcBA |1 "E7"GABc defg :|2 "E7"GEFG "A"A2 |]
